src/assets/img/closeIconLarge.svg

<svg viewBox="0 0 16 16"  xmlns="http://www.w3.org/2000/svg">
<path fill-rule="evenodd" clip-rule="evenodd" d="M0.386207 14.8252C0.165517 15.049 0.165517 15.3846 0.386207 15.6084C0.606897 15.8322 0.937931 15.8322 1.15862 15.6084L7.88966 8.8951L14.731 15.8322C14.9517 16.0559 15.2828 16.0559 15.5034 15.8322C15.7241 15.6084 15.7241 15.2727 15.5034 15.049L8.66207 8.11189L15.8345 0.951049C16.0552 0.727273 16.0552 0.391608 15.8345 0.167832C15.6138 -0.0559441 15.2828 -0.0559441 15.0621 0.167832L7.88966 7.32867L0.937931 0.27972C0.717241 0.0559441 0.386207 0.0559441 0.165517 0.27972C-0.0551724 0.503497 -0.0551724 0.839161 0.165517 1.06294L7.22759 8.11189L0.386207 14.8252Z" />
</svg>

<svg viewBox="0 0 16 16" xmlns="http://www.w3.org/2000/svg"><path fill-rule="evenodd" clip-rule="evenodd" d="M.39 14.83a.55.55 0 0 0 0 .78c.22.22.55.22.77 0L7.89 8.9l6.84 6.93c.22.23.55.23.77 0a.55.55 0 0 0 0-.78L8.66 8.1 15.83.95a.55.55 0 0 0 0-.78.53.53 0 0 0-.77 0L7.9 7.33.94.28a.53.53 0 0 0-.77 0 .55.55 0 0 0 0 .78l7.06 7.05-6.84 6.72Z"/></svg>
